svgs/regular/cow.svg

<svg xmlns="http://www.w3.org/2000/svg" viewBox="0 0 640 512"><!-- Font Awesome Pro 6.0.0-alpha2 by @fontawesome - https://fontawesome.com License - https://fontawesome.com/license (Commercial License) --><path d="M624.5 238L608 218.875V176C608 164.125 595.5 156.375 584.875 161.75C578.75 164.75 573.5 168.75 568.75 173.25L508.75 103.75C490.625 78.75 461.75 64 431 64H112C63.375 64 24 103.375 24 152V238.375C9.5 250.125 0 267.875 0 288V320C39.75 320 72 287.75 72 248V152C72 135.125 82.625 120.875 97.375 115C96.5 119.125 96 123.5 96 128V416C96 433.625 110.375 448 128 448H192C209.75 448 224 433.625 224 416V376C226.625 376.875 229.375 377.375 232.125 378.125V392C232.125 400.875 239.25 408 248.125 408C256.875 408 264.125 400.875 264.125 392V383.375C266.75 383.5 277.375 383.5 280.125 383.25V392C280.125 400.875 287.25 408 296.125 408C304.875 408 312.125 400.875 312.125 392V378C314.75 377.25 317.5 376.875 320 376V416C320 433.625 334.375 448 352 448H416C433.625 448 448 433.625 448 416V272L464 288V330C464 342.25 467.5 354.375 474.25 364.75L509.625 419.625C521.125 437.25 540.75 448 561.75 448H576C611.375 448 640 419.375 640 384V279.75C640 264.5 634.5 249.625 624.5 238ZM210.125 320.625C217 292.75 242.125 272 272 272S326.875 292.75 333.875 320.5C272.625 341.5 271.75 341.5 210.125 320.625ZM592 384C592 392.875 584.875 400 576 400H561.75C557 400 552.625 397.625 549.999 393.5L514.5 338.625C513.625 335.75 512.875 333 512 330V268.125L436.25 192.375C422.875 179 400 188.5 400 207.375V400H368V336C368 290.375 329.875 240 272 240C213.875 240 176 290.75 176 336V400H144V128C144 119.125 151.25 112 160 112H164.375C165.125 113.5 189.75 146.875 189.75 146.875C211.5 175.75 241.125 192 272 192H272.125C303 192 332.5 175.75 354.375 146.875C354.375 146.875 378.875 113.5 379.75 112H431C446.25 112 460.875 119.375 469.875 131.875L588.125 269.375C590.625 272.25 592 276 592 279.75V384ZM560 304C551.125 304 544 311.125 544 320S551.125 336 560 336S576 328.875 576 320S568.875 304 560 304Z"/></svg>

<svg xmlns="http://www.w3.org/2000/svg" viewBox="0 0 640 512"><!--! Font Awesome Pro 6.0.0-alpha3 by @fontawesome - https://fontawesome.com License - https://fontawesome.com/license (Commercial License) --><path d="M624.5 238L608 218.9V176c0-11.88-12.5-19.62-23.12-14.25c-6.125 3-11.38 7-16.12 11.5l-59.1-69.54C490.6 78.71 461.8 64 431 64H112c-48.62 0-88 39.38-88 88v86.38C9.5 250.1 0 267.9 0 288v32c39.75 0 72-32.25 72-72l.0002-96c0-16.88 10.63-31.12 25.38-37C96.5 119.1 96 123.5 96 128L96 416c0 17.62 14.38 32 32 32h64c17.75 0 32-14.38 32-32v-40c2.625 .875 5.375 1.375 8.125 2.125L232.1 392c0 8.875 7.125 16 16 16c8.75 0 16-7.125 16-16l.0625-8.625c2.625 .125 13.25 .125 16-.125L280.1 392c0 8.875 7.125 16 16 16c8.75 0 16-7.125 16-16l.0625-14C314.8 377.2 317.5 376.9 320 376V416c0 17.62 14.38 32 32 32h64C433.6 448 448 433.6 448 416V272L464 288v42c0 12.25 3.5 24.38 10.25 34.75l35.38 54.87C521.1 437.2 540.8 448 561.8 448H576c35.38 0 64-28.62 64-64V279.8C640 264.5 634.5 249.6 624.5 238zM210.1 320.6C217 292.8 242.1 272 272 272s54.88 20.75 61.88 48.5C272.6 341.5 271.8 341.5 210.1 320.6zM592 384c0 8.875-7.125 16-16 16h-14.25c-4.75 0-9.125-2.375-11.75-6.5l-35.5-54.88C513.6 335.8 512.9 332.1 512 329.1V268.1l-75.75-75.75C422.9 179 400 188.5 400 207.4V400h-32v-64c0-45.63-38.13-96-96-96c-58.12 0-95.1 50.75-95.1 96L176 400h-32V128c0-8.875 7.25-16 16-16h4.375C165.1 113.5 189.8 146.9 189.8 146.9C211.5 175.8 241.1 192 272 192s60.5-16.25 82.38-45.12c0 0 24.5-33.38 25.38-34.88H431c15.25 0 29.88 7.375 38.88 19.88l118.3 137.5C590.6 272.2 592 276 592 279.8V384zM560 304C551.1 304 544 311.1 544 320s7.126 16 16 16s16-7.125 16-16S568.9 304 560 304z"/></svg>
